X:1
T:QA 2
L:1/8
M:4/4
V:1
V:2 clef=bass
K:C
[V:1] DFAc efdc | B2 cB B4 | cAGF E2 D^C | C3 _B B2 A2 :|
[V:2] [D,F,C]8 | [G,,F,B,]8 | [C,E,B,]8 | [A,,G,]8 :|